static/img/kroki/e66f145ab02d10254b46c600e1b69eeb.svg

<?xml version="1.0" encoding="us-ascii" standalone="no"?><svg xmlns="http://www.w3.org/2000/svg" xmlns:xlink="http://www.w3.org/1999/xlink" contentStyleType="text/css" height="374px" preserveAspectRatio="none" style="width:368px;height:374px;" version="1.1" viewBox="0 0 368 374" width="368px" zoomAndPan="magnify"><defs/><g><!--class account--><g id="elem_account"><rect codeLine="23" fill="#3D176E" height="39.7891" id="account" rx="2.5" ry="2.5" style="stroke:#000D19;stroke-width:0.5;" width="107" x="251" y="167.79"/><ellipse cx="266" cy="187.6845" fill="#ADD1B2" rx="11" ry="11" style="stroke:#181818;stroke-width:1.0;"/><path d="M268.9688,193.3252 Q268.3906,193.622 267.75,193.7627 Q267.1094,193.9189 266.4063,193.9189 Q263.9063,193.9189 262.5781,192.2783 Q261.2656,190.622 261.2656,187.497 Q261.2656,184.372 262.5781,182.7158 Q263.9063,181.0595 266.4063,181.0595 Q267.1094,181.0595 267.75,181.2158 Q268.4063,181.372 268.9688,181.6689 L268.9688,184.3877 Q268.3438,183.8095 267.75,183.5439 Q267.1563,183.2627 266.5313,183.2627 Q265.1875,183.2627 264.5,184.3408 Q263.8125,185.4033 263.8125,187.497 Q263.8125,189.5908 264.5,190.6689 Q265.1875,191.7314 266.5313,191.7314 Q267.1563,191.7314 267.75,191.4658 Q268.3438,191.1845 268.9688,190.6064 L268.9688,193.3252 Z " fill="#000000"/><text fill="#D9B8FF" font-family="Helvetica" font-size="17" lengthAdjust="spacing" textLength="65" x="285" y="193.5698">account</text></g><!--class dockerhub_namespace--><g id="elem_dockerhub_namespace"><rect codeLine="26" fill="#3D176E" height="39.7891" id="dockerhub_namespace" rx="2.5" ry="2.5" style="stroke:#000D19;stroke-width:0.5;" width="232" x="30.5" y="328.58"/><ellipse cx="45.5" cy="348.4745" fill="#ADD1B2" rx="11" ry="11" style="stroke:#181818;stroke-width:1.0;"/><path d="M48.4688,354.1152 Q47.8906,354.412 47.25,354.5527 Q46.6094,354.7089 45.9063,354.7089 Q43.4063,354.7089 42.0781,353.0683 Q40.7656,351.412 40.7656,348.287 Q40.7656,345.162 42.0781,343.5058 Q43.4063,341.8495 45.9063,341.8495 Q46.6094,341.8495 47.25,342.0058 Q47.9063,342.162 48.4688,342.4589 L48.4688,345.1777 Q47.8438,344.5995 47.25,344.3339 Q46.6563,344.0527 46.0313,344.0527 Q44.6875,344.0527 44,345.1308 Q43.3125,346.1933 43.3125,348.287 Q43.3125,350.3808 44,351.4589 Q44.6875,352.5214 46.0313,352.5214 Q46.6563,352.5214 47.25,352.2558 Q47.8438,351.9745 48.4688,351.3964 L48.4688,354.1152 Z " fill="#000000"/><text fill="#D9B8FF" font-family="Helvetica" font-size="17" lengthAdjust="spacing" textLength="190" x="64.5" y="354.3598">dockerhub_namespace</text></g><!--class dockerhub_resource--><g id="elem_dockerhub_resource"><rect codeLine="29" fill="#3D176E" height="39.7891" id="dockerhub_resource" rx="2.5" ry="2.5" style="stroke:#000D19;stroke-width:0.5;" width="209" x="7" y="167.79"/><ellipse cx="22" cy="187.6845" fill="#ADD1B2" rx="11" ry="11" style="stroke:#181818;stroke-width:1.0;"/><path d="M24.9688,193.3252 Q24.3906,193.622 23.75,193.7627 Q23.1094,193.9189 22.4063,193.9189 Q19.9063,193.9189 18.5781,192.2783 Q17.2656,190.622 17.2656,187.497 Q17.2656,184.372 18.5781,182.7158 Q19.9063,181.0595 22.4063,181.0595 Q23.1094,181.0595 23.75,181.2158 Q24.4063,181.372 24.9688,181.6689 L24.9688,184.3877 Q24.3438,183.8095 23.75,183.5439 Q23.1563,183.2627 22.5313,183.2627 Q21.1875,183.2627 20.5,184.3408 Q19.8125,185.4033 19.8125,187.497 Q19.8125,189.5908 20.5,190.6689 Q21.1875,191.7314 22.5313,191.7314 Q23.1563,191.7314 23.75,191.4658 Q24.3438,191.1845 24.9688,190.6064 L24.9688,193.3252 Z " fill="#000000"/><text fill="#D9B8FF" font-family="Helvetica" font-size="17" lengthAdjust="spacing" textLength="167" x="41" y="193.5698">dockerhub_resource</text></g><!--class resource--><g id="elem_resource"><rect codeLine="32" fill="#3D176E" height="39.7891" id="resource" rx="2.5" ry="2.5" style="stroke:#000D19;stroke-width:0.5;" width="113" x="248" y="7"/><ellipse cx="263" cy="26.8945" fill="#ADD1B2" rx="11" ry="11" style="stroke:#181818;stroke-width:1.0;"/><path d="M265.9688,32.5352 Q265.3906,32.832 264.75,32.9727 Q264.1094,33.1289 263.4063,33.1289 Q260.9063,33.1289 259.5781,31.4883 Q258.2656,29.832 258.2656,26.707 Q258.2656,23.582 259.5781,21.9258 Q260.9063,20.2695 263.4063,20.2695 Q264.1094,20.2695 264.75,20.4258 Q265.4063,20.582 265.9688,20.8789 L265.9688,23.5977 Q265.3438,23.0195 264.75,22.7539 Q264.1563,22.4727 263.5313,22.4727 Q262.1875,22.4727 261.5,23.5508 Q260.8125,24.6133 260.8125,26.707 Q260.8125,28.8008 261.5,29.8789 Q262.1875,30.9414 263.5313,30.9414 Q264.1563,30.9414 264.75,30.6758 Q265.3438,30.3945 265.9688,29.8164 L265.9688,32.5352 Z " fill="#000000"/><text fill="#D9B8FF" font-family="Helvetica" font-size="17" lengthAdjust="spacing" textLength="71" x="282" y="32.7798">resource</text></g><!--reverse link resource to account--><g id="link_resource_account"><path codeLine="35" d="M304.5,65.05 C304.5,95.57 304.5,136.9 304.5,167.46 " fill="none" id="resource-backto-account" style="stroke:#FFAF37;stroke-width:2.0;"/><polygon fill="none" points="304.5,47.05,298.5,65.05,310.5,65.05,304.5,47.05" style="stroke:#FFAF37;stroke-width:2.0;"/></g><!--reverse link account to dockerhub_namespace--><g id="link_account_dockerhub_namespace"><path codeLine="36" d="M272.7435,220.5992 C242.3735,251.1192 196.04,297.69 165.63,328.25 " fill="none" id="account-backto-dockerhub_namespace" style="stroke:#FFAF37;stroke-width:2.0;"/><polygon fill="none" points="285.44,207.84,268.4904,216.3671,276.9966,224.8314,285.44,207.84" style="stroke:#FFAF37;stroke-width:2.0;"/></g><!--reverse link dockerhub_resource to dockerhub_namespace--><g id="link_dockerhub_resource_dockerhub_namespace"><path codeLine="37" d="M119.5961,225.4177 C126.3261,255.9377 135.53,297.69 142.26,328.25 " fill="none" id="dockerhub_resource-backto-dockerhub_namespace" style="stroke:#FFAF37;stroke-width:2.0;"/><polygon fill="none" points="115.72,207.84,113.7368,226.7097,125.4553,224.1257,115.72,207.84" style="stroke:#FFAF37;stroke-width:2.0;"/></g><!--SRC=[XP9BQyCm48Jl_XM2d0rsG-iOUaaCfRs4qlHUP6aL2zkIMSaDwUE_rwxZeFYH73NpiJExA9CS29ILFP8IoXJGU2QNgg98Ix96r8T45nh9GWWgbj7GVDBAtWIsj0Jo3CKdMCdea7ZF9CiL64Fk76j3MRv7NIlUZRT8bMaiKDQXae8QixOMPLfRSChmE5q9CII7GnTB7aOFCC8qSi0J4WG13-CXSZFgwjvdOYU_W8JkqRRQmgZcAEAVkjgo9PoIeqLxVxRZA-LSgZsvTxIthXCgm0jzbr6k3oqjQ67S66C1GTjZ1SbeAuXNN4IJyCiSxB7sT8GordYMV7lUxqdYckM0MPr-g6QbvgimcBOHZAxnqhtKpg_77z_t-p2l3-tKYJnl8cGU_WC0]--></g></svg>

<svg xmlns="http://www.w3.org/2000/svg" width="368" height="374" viewBox="0 0 368 374"><rect width="107" height="39.789" x="251" y="167.79" fill="#3D176E" rx="2.5" ry="2.5" style="stroke:#000d19;stroke-width:.5"/><circle cx="266" cy="187.685" r="11" fill="#ADD1B2" style="stroke:#181818;stroke-width:1"/><path d="M268.969 193.325q-.578.297-1.219.438-.64.156-1.344.156-2.5 0-3.828-1.64-1.312-1.657-1.312-4.782t1.312-4.781q1.328-1.656 3.828-1.656.703 0 1.344.156.656.156 1.219.453v2.719q-.625-.578-1.219-.844-.594-.281-1.219-.281-1.344 0-2.031 1.078-.687 1.062-.687 3.156t.687 3.172q.688 1.062 2.031 1.062.625 0 1.219-.265.594-.281 1.219-.86z"/><text x="285" y="193.57" fill="#D9B8FF" font-family="Helvetica" font-size="17" textLength="65">account</text><rect width="232" height="39.789" x="30.5" y="328.58" fill="#3D176E" rx="2.5" ry="2.5" style="stroke:#000d19;stroke-width:.5"/><circle cx="45.5" cy="348.474" r="11" fill="#ADD1B2" style="stroke:#181818;stroke-width:1"/><path d="M48.469 354.115q-.578.297-1.219.438-.64.156-1.344.156-2.5 0-3.828-1.64-1.312-1.657-1.312-4.782t1.312-4.781q1.328-1.656 3.828-1.656.703 0 1.344.156.656.156 1.219.453v2.719q-.625-.579-1.219-.844-.594-.281-1.219-.281-1.343 0-2.031 1.078-.687 1.062-.687 3.156t.687 3.172q.688 1.062 2.031 1.062.625 0 1.219-.265.594-.281 1.219-.86z"/><text x="64.5" y="354.36" fill="#D9B8FF" font-family="Helvetica" font-size="17" textLength="190">dockerhub_namespace</text><rect width="209" height="39.789" x="7" y="167.79" fill="#3D176E" rx="2.5" ry="2.5" style="stroke:#000d19;stroke-width:.5"/><circle cx="22" cy="187.685" r="11" fill="#ADD1B2" style="stroke:#181818;stroke-width:1"/><path d="M24.969 193.325q-.578.297-1.219.438-.64.156-1.344.156-2.5 0-3.828-1.64-1.312-1.657-1.312-4.782t1.312-4.781q1.328-1.656 3.828-1.656.703 0 1.344.156.656.156 1.219.453v2.719q-.625-.578-1.219-.844-.594-.281-1.219-.281-1.343 0-2.031 1.078-.687 1.062-.687 3.156t.687 3.172q.688 1.062 2.031 1.062.625 0 1.219-.265.594-.281 1.219-.86z"/><text x="41" y="193.57" fill="#D9B8FF" font-family="Helvetica" font-size="17" textLength="167">dockerhub_resource</text><rect width="113" height="39.789" x="248" y="7" fill="#3D176E" rx="2.5" ry="2.5" style="stroke:#000d19;stroke-width:.5"/><circle cx="263" cy="26.895" r="11" fill="#ADD1B2" style="stroke:#181818;stroke-width:1"/><path d="M265.969 32.535q-.578.297-1.219.438-.64.156-1.344.156-2.5 0-3.828-1.64-1.312-1.657-1.312-4.782t1.312-4.781q1.328-1.656 3.828-1.656.703 0 1.344.156.656.156 1.219.453v2.719q-.625-.578-1.219-.844-.594-.281-1.219-.281-1.344 0-2.031 1.078-.687 1.062-.687 3.156t.687 3.172q.688 1.062 2.031 1.062.625 0 1.219-.265.594-.281 1.219-.86z"/><text x="282" y="32.78" fill="#D9B8FF" font-family="Helvetica" font-size="17" textLength="71">resource</text><path fill="none" d="M304.5 65.05v102.41m0-120.41-6 18h12zM272.744 220.6c-30.37 30.52-76.704 77.09-107.114 107.65m119.81-120.41-16.95 8.527 8.507 8.464zm-165.844 17.578c6.73 30.52 15.934 72.272 22.664 102.832m-26.54-120.41-1.983 18.87 11.718-2.584z" style="stroke:#ffaf37;stroke-width:2"/></svg>
